src/assets/globalicon.svg

<svg width="56" height="56" viewBox="0 0 56 56" fill="none" xmlns="http://www.w3.org/2000/svg">
<path opacity="0.3" d="M42.2188 28H34.6916C34.6916 20.1469 31.6958 13.7812 28 13.7812C35.8531 13.7812 42.2188 20.1469 42.2188 28ZM28 42.2188C20.1469 42.2188 13.7812 35.8531 13.7812 28H21.3084C21.3084 35.8531 24.3042 42.2188 28 42.2188ZM34.6916 28H42.2188C42.2188 35.8531 35.8531 42.2188 28 42.2188C31.6958 42.2188 34.6916 35.8531 34.6916 28ZM28 13.7812C24.3042 13.7812 21.3084 20.1469 21.3084 28H13.7812C13.7812 20.1469 20.1469 13.7812 28 13.7812Z" fill="#FF0000"/>
<path d="M48.7812 18.1562H46.5938V20.3438H48.7812V18.1562Z" fill="#B30000"/>
<path d="M37.8438 46.5938H35.6562V48.7812H37.8438V46.5938Z" fill="#B30000"/>
<path d="M37.8438 7.21875H35.6562V9.40625H37.8438V7.21875Z" fill="#B30000"/>
<path d="M21.4375 45.5H19.25V47.6875H21.4375V45.5Z" fill="#B30000"/>
<path d="M10.5 19.25H8.3125V21.4375H10.5V19.25Z" fill="#B30000"/>
<path d="M8.3125 34.5625H6.125V36.75H8.3125V34.5625Z" fill="#B30000"/>
<path d="M28 43.3125C19.5567 43.3125 12.6875 36.4433 12.6875 28C12.6875 19.5567 19.5567 12.6875 28 12.6875C36.4433 12.6875 43.3125 19.5567 43.3125 28C43.3125 36.4433 36.4433 43.3125 28 43.3125ZM28 14.875C20.7628 14.875 14.875 20.7628 14.875 28C14.875 35.2371 20.7628 41.125 28 41.125C35.2371 41.125 41.125 35.2371 41.125 28C41.125 20.7628 35.2371 14.875 28 14.875Z" fill="#B30000"/>
<path d="M27.9999 43.3125C25.7648 43.3125 23.733 41.6105 22.2785 38.5201C20.9475 35.6918 20.2146 31.9558 20.2146 28C20.2146 24.0442 20.9476 20.3081 22.2786 17.48C23.733 14.3895 25.7648 12.6875 27.9999 12.6875C30.235 12.6875 32.2668 14.3895 33.7213 17.48C35.0522 20.3081 35.7852 24.0442 35.7852 28C35.7852 31.9558 35.0522 35.6918 33.7213 38.52C32.2668 41.6105 30.235 43.3125 27.9999 43.3125ZM27.9999 14.875C26.6794 14.875 25.3155 16.164 24.2579 18.4114C23.0611 20.9543 22.4021 24.3596 22.4021 28C22.4021 31.6404 23.0611 35.0457 24.2579 37.5886C25.3155 39.836 26.6794 41.125 27.9999 41.125C29.3203 41.125 30.6843 39.836 31.742 37.5886C32.9386 35.0457 33.5977 31.6404 33.5977 28C33.5977 24.3596 32.9387 20.9543 31.742 18.4114C30.6843 16.164 29.3203 14.875 27.9999 14.875Z" fill="#B30000"/>
<path d="M42.5312 29.1875H14.0938C13.4897 29.1875 13 28.6977 13 28.0938C13 27.4897 13.4897 27 14.0938 27H42.5312C43.1352 27 43.625 27.4897 43.625 28.0938C43.625 28.6977 43.1352 29.1875 42.5312 29.1875Z" fill="#B30000"/>
<path d="M28 43.3125C27.3959 43.3125 26.9062 42.8227 26.9062 42.2188V13.7812C26.9062 13.1772 27.3959 12.6875 28 12.6875C28.604 12.6875 29.0938 13.1772 29.0938 13.7812V42.2188C29.0938 42.8227 28.604 43.3125 28 43.3125ZM28 11.5938C27.3959 11.5938 26.9062 11.1041 26.9062 10.5V7.21875C26.9062 6.61467 27.3959 6.125 28 6.125C28.604 6.125 29.0938 6.61467 29.0938 7.21875V10.5C29.0938 11.1041 28.604 11.5938 28 11.5938Z" fill="#B30000"/>
<path d="M28 8.3125C26.1907 8.3125 24.7188 6.84053 24.7188 5.03125C24.7188 3.22197 26.1907 1.75 28 1.75C29.8093 1.75 31.2812 3.22197 31.2812 5.03125C31.2812 6.84053 29.8093 8.3125 28 8.3125ZM28 3.9375C27.3969 3.9375 26.9062 4.42816 26.9062 5.03125C26.9062 5.63434 27.3969 6.125 28 6.125C28.6031 6.125 29.0938 5.63434 29.0938 5.03125C29.0938 4.42816 28.6031 3.9375 28 3.9375ZM28 49.875C27.3959 49.875 26.9062 49.3852 26.9062 48.7812V45.5C26.9062 44.896 27.3959 44.4062 28 44.4062C28.604 44.4062 29.0938 44.896 29.0938 45.5V48.7812C29.0938 49.3852 28.604 49.875 28 49.875Z" fill="#B30000"/>
<path d="M28 54.2498C26.1907 54.2498 24.7188 52.7778 24.7188 50.9685C24.7188 49.1593 26.1907 47.6873 28 47.6873C29.8093 47.6873 31.2813 49.1593 31.2813 50.9685C31.2813 52.7778 29.8093 54.2498 28 54.2498ZM28 49.8748C27.3969 49.8748 26.9063 50.3654 26.9063 50.9685C26.9063 51.5716 27.3969 52.0623 28 52.0623C28.6031 52.0623 29.0938 51.5716 29.0938 50.9685C29.0938 50.3654 28.6031 49.8748 28 49.8748ZM40.3747 16.7189C40.0947 16.7189 39.8149 16.6121 39.6013 16.3985C39.1742 15.9714 39.1742 15.2788 39.6013 14.8516L41.9211 12.5318C42.3484 12.1046 43.0407 12.1046 43.468 12.5318C43.8951 12.9589 43.8951 13.6514 43.468 14.0786L41.1482 16.3985C40.9345 16.6121 40.6546 16.7189 40.3747 16.7189Z" fill="#B30000"/>
<path d="M44.2403 15.0395C43.3639 15.0395 42.5401 14.6982 41.9202 14.0785C40.6411 12.7993 40.6411 10.7179 41.9202 9.43862C42.5401 8.81879 43.3639 8.47754 44.2403 8.47754C45.1166 8.47754 45.9405 8.8189 46.5602 9.43862C47.1803 10.0579 47.5221 10.8819 47.5221 11.7586C47.5221 12.6351 47.1803 13.4592 46.5597 14.079C45.9405 14.6982 45.1166 15.0395 44.2403 15.0395ZM44.2403 10.6651C43.9483 10.6651 43.6736 10.7789 43.4671 10.9855C43.0408 11.4117 43.0408 12.1055 43.4671 12.5319C43.6737 12.7384 43.9483 12.8521 44.2403 12.8521C44.5323 12.8521 44.8069 12.7384 45.0134 12.5319C45.2207 12.3248 45.3345 12.0504 45.3345 11.7587C45.3345 11.4669 45.2206 11.1926 45.0138 10.9861C44.8069 10.7789 44.5323 10.6651 44.2403 10.6651ZM13.3047 43.7879C13.0248 43.7879 12.7448 43.6811 12.5313 43.4676C12.1042 43.0405 12.1042 42.3479 12.5313 41.9207L14.8511 39.6009C15.2782 39.1739 15.9708 39.1739 16.398 39.6009C16.8251 40.028 16.8251 40.7205 16.398 41.1477L14.0782 43.4676C13.8646 43.6811 13.5846 43.7879 13.3047 43.7879Z" fill="#B30000"/>
<path d="M11.7576 47.5229C10.881 47.5229 10.0569 47.1811 9.43709 46.5605C8.81792 45.9413 8.47656 45.1174 8.47656 44.2411C8.47656 43.3647 8.81781 42.5409 9.43753 41.921C10.0574 41.3013 10.8812 40.9601 11.7576 40.9601C12.6339 40.9601 13.4577 41.3013 14.0774 41.921C14.6972 42.5409 15.0385 43.3647 15.0385 44.2411C15.0385 45.1174 14.6972 45.9413 14.0774 46.561C13.4583 47.1811 12.6341 47.5229 11.7576 47.5229ZM11.7576 43.1476C11.4655 43.1476 11.1909 43.2613 10.9844 43.4679C10.7779 43.6745 10.6642 43.9491 10.6642 44.2411C10.6642 44.5331 10.7779 44.8077 10.9844 45.0142C11.1915 45.2215 11.4659 45.3353 11.7576 45.3353C12.0493 45.3353 12.3237 45.2214 12.5302 45.0146C12.7373 44.8074 12.851 44.533 12.851 44.241C12.851 43.949 12.7373 43.6743 12.5307 43.4678C12.3242 43.2613 12.0496 43.1476 11.7576 43.1476ZM48.7799 29.0938H45.4987C44.8946 29.0938 44.4049 28.604 44.4049 28C44.4049 27.3959 44.8946 26.9062 45.4987 26.9062H48.7799C49.3839 26.9062 49.8737 27.3959 49.8737 28C49.8737 28.604 49.3839 29.0938 48.7799 29.0938Z" fill="#B30000"/>
<path d="M50.9688 31.2812C49.1595 31.2812 47.6875 29.8093 47.6875 28C47.6875 26.1907 49.1595 24.7188 50.9688 24.7188C52.778 24.7188 54.25 26.1907 54.25 28C54.25 29.8093 52.778 31.2812 50.9688 31.2812ZM50.9688 26.9062C50.3657 26.9062 49.875 27.3969 49.875 28C49.875 28.6031 50.3657 29.0938 50.9688 29.0938C51.5718 29.0938 52.0625 28.6031 52.0625 28C52.0625 27.3969 51.5718 26.9062 50.9688 26.9062ZM10.5 29.0938H7.21875C6.61467 29.0938 6.125 28.604 6.125 28C6.125 27.3959 6.61467 26.9062 7.21875 26.9062H10.5C11.1041 26.9062 11.5938 27.3959 11.5938 28C11.5938 28.604 11.1041 29.0938 10.5 29.0938Z" fill="#B30000"/>
<path d="M5.03125 31.2812C3.22197 31.2812 1.75 29.8093 1.75 28C1.75 26.1907 3.22197 24.7188 5.03125 24.7188C6.84053 24.7188 8.3125 26.1907 8.3125 28C8.3125 29.8093 6.84053 31.2812 5.03125 31.2812ZM5.03125 26.9062C4.42816 26.9062 3.9375 27.3969 3.9375 28C3.9375 28.6031 4.42816 29.0938 5.03125 29.0938C5.63434 29.0938 6.125 28.6031 6.125 28C6.125 27.3969 5.63434 26.9062 5.03125 26.9062ZM42.6945 43.7883C42.4145 43.7883 42.1348 43.6814 41.9211 43.4679L39.6013 41.1481C39.1742 40.721 39.1742 40.0284 39.6013 39.6012C40.0285 39.1742 40.7209 39.1742 41.1481 39.6012L43.4679 41.921C43.895 42.3481 43.895 43.0407 43.4679 43.4679C43.2543 43.6814 42.9744 43.7883 42.6945 43.7883Z" fill="#B30000"/>
<path d="M44.2403 47.5232C43.3636 47.5232 42.5395 47.1814 41.9198 46.5608C40.6411 45.2822 40.6411 43.2007 41.9202 41.9214C42.5401 41.3016 43.364 40.9603 44.2403 40.9603C45.1166 40.9603 45.9405 41.3016 46.5602 41.9213C47.1804 42.5407 47.5221 43.3648 47.5221 44.2415C47.5221 45.1181 47.1803 45.9422 46.5597 46.5619C45.941 47.1814 45.1169 47.5232 44.2403 47.5232ZM44.2403 43.1478C43.9483 43.1478 43.6735 43.2616 43.467 43.4682C43.0408 43.8944 43.0408 44.5882 43.4671 45.0145C43.6742 45.2219 43.9485 45.3357 44.2403 45.3357C44.532 45.3357 44.8064 45.2218 45.0128 45.015C45.2206 44.8074 45.3345 44.5331 45.3345 44.2414C45.3345 43.9496 45.2206 43.6751 45.0138 43.4686C44.807 43.2616 44.5323 43.1478 44.2403 43.1478ZM15.6245 16.7193C15.3446 16.7193 15.0646 16.6126 14.8511 16.399L12.5313 14.0791C12.1042 13.652 12.1042 12.9595 12.5313 12.5322C12.9584 12.1051 13.6509 12.1051 14.0782 12.5322L16.398 14.8521C16.8251 15.2792 16.8251 15.9718 16.398 16.399C16.1844 16.6126 15.9044 16.7193 15.6245 16.7193Z" fill="#B30000"/>
<path d="M11.7576 15.0395C10.8813 15.0395 10.0572 14.6982 9.43753 14.0785C8.81781 13.4588 8.47656 12.6349 8.47656 11.7586C8.47656 10.8823 8.81781 10.0582 9.43753 9.43851C10.0572 8.81879 10.8812 8.47754 11.7576 8.47754C12.6339 8.47754 13.4578 8.81879 14.0775 9.43851C14.6973 10.0582 15.0385 10.8821 15.0385 11.7586C15.0385 12.6349 14.6973 13.4588 14.0775 14.0785C13.4578 14.6982 12.6339 15.0395 11.7576 15.0395ZM11.7576 10.6651C11.4656 10.6651 11.1909 10.7789 10.9844 10.9855C10.7778 11.192 10.6641 11.4666 10.6641 11.7587C10.6641 12.0506 10.7778 12.3252 10.9844 12.5317C11.1909 12.7384 11.4656 12.8521 11.7576 12.8521C12.0495 12.8521 12.3242 12.7384 12.5307 12.5317C12.7373 12.3252 12.851 12.0506 12.851 11.7587C12.851 11.4666 12.7373 11.192 12.5307 10.9855C12.3242 10.7789 12.0496 10.6651 11.7576 10.6651Z" fill="#B30000"/>
</svg>

<svg width="56" height="56" viewBox="0 0 56 56" fill="none" xmlns="http://www.w3.org/2000/svg">
    <path opacity=".3" d="M42.219 28h-7.527c0-7.853-2.996-14.219-6.692-14.219 7.853 0 14.219 6.366 14.219 14.219zM28 42.219c-7.853 0-14.219-6.366-14.219-14.219h7.527c0 7.853 2.996 14.219 6.692 14.219zM34.692 28h7.527c0 7.853-6.366 14.219-14.219 14.219 3.696 0 6.692-6.366 6.692-14.219zM28 13.781c-3.696 0-6.692 6.366-6.692 14.219h-7.527c0-7.853 6.366-14.219 14.219-14.219z" fill="red"/>
    <path d="M48.781 18.156h-2.187v2.188h2.187v-2.188zM37.844 46.594h-2.188v2.187h2.188v-2.187zM37.844 7.219h-2.188v2.187h2.188V7.22zM21.438 45.5H19.25v2.188h2.188V45.5zM10.5 19.25H8.312v2.188H10.5V19.25zM8.313 34.563H6.124v2.187h2.188v-2.188zM28 43.313c-8.443 0-15.313-6.87-15.313-15.313 0-8.443 6.87-15.313 15.313-15.313 8.443 0 15.313 6.87 15.313 15.313 0 8.443-6.87 15.313-15.313 15.313zm0-28.438c-7.237 0-13.125 5.888-13.125 13.125S20.763 41.125 28 41.125 41.125 35.237 41.125 28 35.237 14.875 28 14.875z" fill="#004498"/>
    <path d="M28 43.313c-2.235 0-4.267-1.703-5.721-4.793-1.331-2.828-2.064-6.564-2.064-10.52 0-3.956.733-7.692 2.064-10.52 1.454-3.09 3.486-4.793 5.721-4.793s4.267 1.703 5.722 4.793c1.33 2.828 2.063 6.564 2.063 10.52 0 3.956-.733 7.692-2.063 10.52-1.455 3.09-3.487 4.792-5.722 4.792zm0-28.438c-1.32 0-2.684 1.289-3.742 3.536-1.197 2.543-1.856 5.949-1.856 9.589 0 3.64.66 7.046 1.856 9.589 1.058 2.247 2.422 3.536 3.742 3.536 1.32 0 2.684-1.289 3.742-3.536 1.197-2.543 1.856-5.949 1.856-9.589 0-3.64-.659-7.046-1.856-9.589-1.058-2.247-2.422-3.536-3.742-3.536z" fill="#004498"/>
    <path d="M42.531 29.188H14.094a1.094 1.094 0 0 1 0-2.188H42.53a1.094 1.094 0 0 1 0 2.188z" fill="#004498"/>
    <path d="M28 43.313c-.604 0-1.094-.49-1.094-1.094V13.78a1.094 1.094 0 0 1 2.188 0V42.22c0 .604-.49 1.093-1.094 1.093zm0-31.72c-.604 0-1.094-.489-1.094-1.093V7.219a1.094 1.094 0 0 1 2.188 0V10.5c0 .604-.49 1.094-1.094 1.094z" fill="#004498"/>
    <path d="M28 8.313a3.285 3.285 0 0 1-3.281-3.282A3.285 3.285 0 0 1 28 1.75a3.285 3.285 0 0 1 3.281 3.281A3.285 3.285 0 0 1 28 8.313zm0-4.376a1.095 1.095 0 1 0 1.094 1.094c0-.603-.49-1.093-1.094-1.093zm0 45.938c-.604 0-1.094-.49-1.094-1.094V45.5a1.094 1.094 0 0 1 2.188 0v3.281c0 .604-.49 1.094-1.094 1.094z" fill="#004498"/>
    <path d="M28 54.25a3.285 3.285 0 0 1-3.281-3.281A3.285 3.285 0 0 1 28 47.687a3.285 3.285 0 0 1 3.281 3.282A3.285 3.285 0 0 1 28 54.25zm0-4.375a1.095 1.095 0 0 0 0 2.188 1.095 1.095 0 0 0 0-2.188zm12.375-33.156a1.094 1.094 0 0 1-.773-1.867l2.32-2.32a1.094 1.094 0 0 1 1.546 1.547l-2.32 2.32a1.09 1.09 0 0 1-.773.32z" fill="#004498"/>
    <path d="M44.24 15.04a3.26 3.26 0 0 1-2.32-.961 3.285 3.285 0 0 1 0-4.64 3.26 3.26 0 0 1 2.32-.961c.877 0 1.7.341 2.32.96.62.62.962 1.444.962 2.32 0 .877-.342 1.702-.962 2.321-.62.62-1.443.96-2.32.96zm0-4.375a1.095 1.095 0 0 0 0 2.187c.292 0 .567-.113.773-.32.208-.207.322-.481.322-.773 0-.292-.114-.566-.321-.773a1.086 1.086 0 0 0-.774-.32zM13.305 43.788a1.094 1.094 0 0 1-.773-1.867l2.32-2.32a1.094 1.094 0 0 1 1.546 1.547l-2.32 2.32c-.213.213-.493.32-.773.32z" fill="#004498"/>
    <path d="M11.76 47.523c-.877 0-1.701-.342-2.321-.963a3.26 3.26 0 0 1-.96-2.319c0-.876.34-1.7.96-2.32a3.26 3.26 0 0 1 2.32-.96c.877 0 1.7.34 2.32.96.62.62.961 1.444.961 2.32 0 .876-.34 1.7-.96 2.32-.62.62-1.444.962-2.32.962zm0-4.375c-.293 0-.567.113-.774.32-.206.206-.32.481-.32.773 0 .292.114.567.32.773.207.207.482.321.773.321.292 0 .567-.114.773-.32.207-.208.321-.482.321-.774 0-.292-.114-.567-.32-.773a1.086 1.086 0 0 0-.774-.32zm37.022-14.054H45.5a1.094 1.094 0 0 1 0-2.188h3.28a1.094 1.094 0 0 1 0 2.188z" fill="#004498"/>
    <path d="M50.969 31.281A3.285 3.285 0 0 1 47.687 28a3.285 3.285 0 0 1 3.282-3.281A3.285 3.285 0 0 1 54.25 28a3.285 3.285 0 0 1-3.281 3.281zm0-4.375a1.095 1.095 0 0 0 0 2.188 1.095 1.095 0 0 0 0-2.188zM10.5 29.094H7.219a1.094 1.094 0 0 1 0-2.188H10.5a1.094 1.094 0 1 1 0 2.188z" fill="#004498"/>
    <path d="M5.031 31.281A3.285 3.285 0 0 1 1.75 28a3.285 3.285 0 0 1 3.281-3.281A3.285 3.285 0 0 1 8.313 28a3.285 3.285 0 0 1-3.282 3.281zm0-4.375a1.095 1.095 0 0 0 0 2.188 1.095 1.095 0 0 0 0-2.188zm37.663 16.882c-.28 0-.56-.107-.773-.32l-2.32-2.32a1.094 1.094 0 0 1 1.547-1.547l2.32 2.32a1.094 1.094 0 0 1-.774 1.867z" fill="#004498"/>
    <path d="M44.24 47.523a3.284 3.284 0 0 1-2.32-5.602 3.26 3.26 0 0 1 2.32-.96c.877 0 1.7.34 2.32.96.62.62.962 1.444.962 2.32 0 .877-.342 1.7-.962 2.32a3.257 3.257 0 0 1-2.32.962zm0-4.375a1.095 1.095 0 0 0 0 2.188c.292 0 .566-.114.773-.321.208-.208.322-.482.322-.774 0-.292-.114-.566-.321-.773a1.086 1.086 0 0 0-.774-.32zM15.624 16.719c-.28 0-.56-.107-.773-.32l-2.32-2.32a1.094 1.094 0 0 1 1.547-1.547l2.32 2.32a1.094 1.094 0 0 1-.774 1.867z" fill="#004498"/>
    <path d="M11.76 15.04a3.26 3.26 0 0 1-2.32-.961 3.26 3.26 0 0 1-.961-2.32c0-.877.34-1.7.96-2.32a3.26 3.26 0 0 1 2.32-.961c.877 0 1.7.341 2.32.96.62.62.961 1.444.961 2.32 0 .877-.34 1.701-.96 2.32a3.26 3.26 0 0 1-2.32.962zm0-4.375c-.293 0-.567.114-.774.32-.206.207-.32.482-.32.774 0 .292.114.566.32.773.207.207.481.32.773.32.293 0 .567-.113.774-.32.206-.207.32-.481.32-.773 0-.292-.114-.567-.32-.773a1.085 1.085 0 0 0-.774-.32z" fill="#004498"/>
</svg>
